src/images/icons/footer-pointer.svg

<svg fill="none" height="24" viewBox="0 0 16 24" width="16" xmlns="http://www.w3.org/2000/svg"><path d="m8.01926 0c-2.12576.00349921-4.16346.849506-5.66661 2.35265-1.50314 1.50315-2.34914757 3.54084-2.35264678 5.66661-.00107269 1.1909.26576478 2.36684.78075278 3.44064-.007069.0214-.007069.0446 0 .0661l6.060754 11.7378c.11145.2093.27711.3849.47964.5083.20253.1233.43451.19.67164.193.23714-.003.46911-.0697.67165-.193.20253-.1234.36819-.299.47963-.5083l6.07403-11.7245v-.0662c.5819-1.2195.8463-2.56618.7686-3.91514s-.495-2.65641-1.2131-3.80096c-.7182-1.14455-1.7139-2.08908-2.8947-2.7459-1.1808-.656811-2.50846-1.00460994-3.85964-1.0111zm0 12.2141c-.82967 0-1.64071-.246-2.33056-.7069-.68984-.461-1.22751-1.1161-1.54501-1.88263-.31751-.76651-.40058-1.60997-.23872-2.4237s.56139-1.56118 1.14805-2.14785c.58667-.58667 1.33413-.98619 2.14786-1.14805s1.65718-.07879 2.4237.23871 1.42162.85517 1.88262 1.54502c.4609.68985.707 1.50089.707 2.33056 0 .55088-.1086 1.09636-.3194 1.60531-.2108.50893-.5198.97143-.9093 1.36093s-.852.6985-1.36092.9093c-.50895.2108-1.05444.3193-1.60532.3193z" fill="#10182e"/></svg>

<svg width="16" height="24" viewBox="0 0 16 24" fill="none" xmlns="http://www.w3.org/2000/svg">
<path d="M8.01926 0C5.8935 0.00349921 3.8558 0.849506 2.35265 2.35265C0.84951 3.8558 0.00350243 5.89349 3.22138e-06 8.01926C-0.00106947 9.21016 0.265768 10.3861 0.780756 11.4599C0.773687 11.4813 0.773687 11.5045 0.780756 11.526L6.84151 23.2638C6.95296 23.4731 7.11862 23.6487 7.32115 23.7721C7.52368 23.8954 7.75566 23.9621 7.99279 23.9651C8.22993 23.9621 8.4619 23.8954 8.66444 23.7721C8.86697 23.6487 9.03263 23.4731 9.14407 23.2638L15.2181 11.5393V11.4731C15.8 10.2536 16.0644 8.90692 15.9867 7.55796C15.909 6.209 15.4917 4.90155 14.7736 3.757C14.0554 2.61245 13.0597 1.66792 11.8789 1.0111C10.6981 0.354289 9.37044 0.00649006 8.01926 0V0ZM8.01926 12.2141C7.18959 12.2141 6.37855 11.9681 5.6887 11.5072C4.99886 11.0462 4.46119 10.3911 4.14369 9.62457C3.82618 8.85806 3.74311 8.0146 3.90497 7.20087C4.06683 6.38714 4.46636 5.63969 5.05302 5.05302C5.63969 4.46635 6.38715 4.06683 7.20088 3.90497C8.01461 3.74311 8.85806 3.82618 9.62458 4.14368C10.3911 4.46118 11.0462 4.99885 11.5072 5.6887C11.9681 6.37855 12.2142 7.18959 12.2142 8.01926C12.2142 8.57014 12.1056 9.11562 11.8948 9.62457C11.684 10.1335 11.375 10.596 10.9855 10.9855C10.596 11.375 10.1335 11.684 9.62458 11.8948C9.11563 12.1056 8.57014 12.2141 8.01926 12.2141Z" fill="#10182E"/>
</svg>
